src/assets/icons/volume-mute.svg

<svg widh="100%" height="100%" viewBox="0 0 24 24" fill="current"
  xmlns="http://www.w3.org/2000/svg">
  <path d="M20.0115 13.8711V15.3536H18.427L16.4268 13.4827L14.4265 15.3536H12.8416V13.8711L14.8418 12.0001L12.8416 10.1291V8.64697H14.4265L16.4268 10.518L18.427 8.64697H20.0115V10.1291L18.0113 12.0001L20.0115 13.8711ZM9.5804 4.43151C10.0596 3.98331 10.4515 4.135 10.4515 4.76939V19.2309C10.4515 19.8649 10.0596 20.0165 9.5804 19.5687L5.07418 15.3536H2.08696V8.64697H5.07418L9.5804 4.43151Z"/>
</svg>

<svg xmlns="http://www.w3.org/2000/svg" fill="currentColor" viewBox="0 0 24 24">
  <path d="M20.012 13.871v1.483h-1.585l-2-1.871-2 1.87h-1.585v-1.482l2-1.87-2-1.872V8.647h1.585l2 1.871 2-1.871h1.585v1.482l-2 1.871 2 1.871ZM9.58 4.431c.48-.448.871-.296.871.338v14.462c0 .634-.391.785-.87.338l-4.507-4.215H2.087V8.647h2.987L9.58 4.432Z"/>
</svg>
